icons/health_data_sync.svg

<svg width="48" height="48" viewBox="0 0 48 48" fill="none" xmlns="http://www.w3.org/2000/svg">
<path fill-rule="evenodd" clip-rule="evenodd" d="M17 7C17 5.34315 18.3431 4 20 4H28C29.6569 4 31 5.34315 31 7H34C35.6569 7 37 8.34315 37 10V26H35V10C35 9.44772 34.5523 9 34 9H31C31 10.6569 29.6569 12 28 12H20C18.3431 12 17 10.6569 17 9H14C13.4477 9 13 9.44772 13 10V38C13 38.5523 13.4477 39 14 39H24V41H14C12.3431 41 11 39.6569 11 38V10C11 8.34315 12.3431 7 14 7H17ZM20 6C19.4477 6 19 6.44772 19 7V9C19 9.55228 19.4477 10 20 10H28C28.5523 10 29 9.55228 29 9V7C29 6.44772 28.5523 6 28 6H20ZM23 16V19H20V21H23V24H25V21H28V19H25V16H23ZM24 29.665V33.665C24 34.2173 24.4477 34.665 25 34.665H29V32.665H27.5246L28.7781 31.4872C28.7857 31.48 28.7932 31.4727 28.8006 31.4654C29.3977 30.868 30.1363 30.4316 30.9477 30.1969C31.759 29.9622 32.6166 29.9369 33.4404 30.1233C34.2642 30.3097 35.0274 30.7017 35.6587 31.2628C36.2899 31.8239 36.7688 32.5358 37.0506 33.332L38.936 32.6648C38.5415 31.5501 37.8711 30.5535 36.9873 29.7679C36.1035 28.9824 35.0351 28.4335 33.8818 28.1726C32.7285 27.9116 31.5279 27.9471 30.392 28.2757C29.2613 28.6027 28.2314 29.2096 27.3975 30.04L26 31.3532V29.665H24ZM35.6667 35.332H39.6667C40.219 35.332 40.6667 35.7797 40.6667 36.332V40.332H38.6667V38.6435L37.269 39.9569C36.4352 40.7873 35.4053 41.3941 34.2746 41.7212C33.1387 42.0498 31.9381 42.0852 30.7848 41.8243C29.6315 41.5633 28.5631 41.0145 27.6793 40.2289C26.7955 39.4434 26.125 38.4467 25.7306 37.332L27.616 36.6648C27.8978 37.4611 28.3766 38.1729 29.0079 38.734C29.6392 39.2951 30.4024 39.6872 31.2262 39.8736C32.05 40.06 32.9075 40.0346 33.7189 39.8C34.5302 39.5653 35.2689 39.1289 35.866 38.5315C35.8734 38.5241 35.8809 38.5168 35.8885 38.5097L37.1418 37.332H35.6667V35.332Z" fill="black"/>
</svg>

<svg
  xmlns="http://www.w3.org/2000/svg"
  width="24"
  height="24"
  viewBox="0 0 24 24"
  fill="none"
  stroke="currentColor"
  stroke-width="2"
  stroke-linecap="round"
  stroke-linejoin="round"
>
  <path
    fill-rule="evenodd"
    d="M17 7a3 3 0 0 1 3-3h8a3 3 0 0 1 3 3h3a3 3 0 0 1 3 3v16h-2V10a1 1 0 0 0-1-1h-3a3 3 0 0 1-3 3h-8a3 3 0 0 1-3-3h-3a1 1 0 0 0-1 1v28a1 1 0 0 0 1 1h10v2H14a3 3 0 0 1-3-3V10a3 3 0 0 1 3-3zm3-1a1 1 0 0 0-1 1v2a1 1 0 0 0 1 1h8a1 1 0 0 0 1-1V7a1 1 0 0 0-1-1zm3 10v3h-3v2h3v3h2v-3h3v-2h-3v-3zm1 13.665v4a1 1 0 0 0 1 1h4v-2h-1.475l1.253-1.178.023-.022a5 5 0 0 1 8.25 1.867l1.885-.667a7 7 0 0 0-11.538-2.625L26 31.353v-1.688zm11.667 5.667h4a1 1 0 0 1 1 1v4h-2v-1.688l-1.398 1.313a7 7 0 0 1-11.538-2.625l1.885-.667a5 5 0 0 0 8.273 1.845l1.253-1.178h-1.475z"
    clip-rule="evenodd"
  />
</svg>
